build/fonts/cisco/vpnconcentrator.svg

<?xml version="1.0" encoding="UTF-8" standalone="no"?>
<svg
   xmlns:dc="http://purl.org/dc/elements/1.1/"
   xmlns:cc="http://creativecommons.org/ns#"
   xmlns:rdf="http://www.w3.org/1999/02/22-rdf-syntax-ns#"
   xmlns:svg="http://www.w3.org/2000/svg"
   xmlns="http://www.w3.org/2000/svg"
   viewBox="0 0 38.75 36.25"
   height="36.25"
   width="38.75"
   xml:space="preserve"
   version="1.1"
   id="svg2"><metadata
     id="metadata8"><rdf:RDF><cc:Work
         rdf:about=""><dc:format>image/svg+xml</dc:format><dc:type
           rdf:resource="http://purl.org/dc/dcmitype/StillImage" /></cc:Work></rdf:RDF></metadata><defs
     id="defs6"><clipPath
       id="clipPath18"
       clipPathUnits="userSpaceOnUse"><path
         id="path20"
         d="m 0,10 310,0 0,280 L 0,290 0,10 Z" /></clipPath></defs><g
     transform="matrix(1.25,0,0,-1.25,0,36.25)"
     id="g10"><g
       transform="scale(0.1,0.1)"
       id="g12"><g
         id="g14"><g
           clip-path="url(#clipPath18)"
           id="g16"><path
             id="path22"
             style="fill:#036998;fill-opacity:1;fill-rule:nonzero;stroke:none"
             d="m 1.98828,8.51953 76.64062,34.80077 229.8511,0 -76.64,-34.80077 -229.85172,0" /><path
             id="path24"
             style="fill:none;stroke:#ffffff;stroke-width:3.99993992;stroke-linecap:butt;stroke-linejoin:miter;stroke-miterlimit:4;stroke-dasharray:none;stroke-opacity:1"
             d="m 1.98828,8.51953 76.64062,34.80077 229.8511,0 -76.64,-34.80077 -229.85172,0 z" /><path
             id="path26"
             style="fill:#036998;fill-opacity:1;fill-rule:nonzero;stroke:none"
             d="m 1.98828,252.109 76.64062,34.801 0,-243.5897 -76.64062,-34.80077 0,243.58947" /><path
             id="path28"
             style="fill:none;stroke:#ffffff;stroke-width:3.99993992;stroke-linecap:butt;stroke-linejoin:miter;stroke-miterlimit:4;stroke-dasharray:none;stroke-opacity:1"
             d="m 1.98828,252.109 76.64062,34.801 0,-243.5897 -76.64062,-34.80077 0,243.58947 z" /><path
             id="path30"
             style="fill:#036998;fill-opacity:1;fill-rule:nonzero;stroke:none"
             d="m 78.6289,43.3203 229.84,0 0,243.59 -229.84,0 0,-243.59 z" /><path
             id="path32"
             style="fill:none;stroke:#ffffff;stroke-width:3.99993992;stroke-linecap:butt;stroke-linejoin:miter;stroke-miterlimit:4;stroke-dasharray:none;stroke-opacity:1"
             d="m 78.6289,43.3203 229.84,0 0,243.59 -229.84,0 0,-243.59 z" /><path
             id="path34"
             style="fill:#036998;fill-opacity:1;fill-rule:nonzero;stroke:none"
             d="m 1.98828,252.109 76.64062,34.801 229.8511,0 -76.64,-34.801 -229.85172,0" /><path
             id="path36"
             style="fill:none;stroke:#ffffff;stroke-width:3.99993992;stroke-linecap:butt;stroke-linejoin:miter;stroke-miterlimit:4;stroke-dasharray:none;stroke-opacity:1"
             d="m 1.98828,252.109 76.64062,34.801 229.8511,0 -76.64,-34.801 -229.85172,0 z" /><path
             id="path38"
             style="fill:#036998;fill-opacity:1;fill-rule:nonzero;stroke:none"
             d="m 43.7891,217.297 c 7.8515,0 13.9414,-13.039 13.9414,-31.317 0,-17.39 -6.0899,-31.292 -13.9414,-31.292 -8.711,0 -13.9493,13.902 -13.9493,31.292 0,18.278 5.2383,31.317 13.9493,31.317" /><path
             id="path40"
             style="fill:none;stroke:#ffffff;stroke-width:3.99993992;stroke-linecap:butt;stroke-linejoin:miter;stroke-miterlimit:4;stroke-dasharray:none;stroke-opacity:1"
             d="m 43.7891,217.297 c 7.8515,0 13.9414,-13.039 13.9414,-31.317 0,-17.39 -6.0899,-31.292 -13.9414,-31.292 -8.711,0 -13.9493,13.902 -13.9493,31.292 0,18.278 5.2383,31.317 13.9493,31.317" /><path
             id="path42"
             style="fill:#036998;fill-opacity:1;fill-rule:nonzero;stroke:none"
             d="m 43.7891,154.68 188.09,0 0,62.6172 -188.09,0 0,-62.6172 z" /><path
             id="path44"
             style="fill:none;stroke:#ffffff;stroke-width:3.99993992;stroke-linecap:butt;stroke-linejoin:miter;stroke-miterlimit:4;stroke-dasharray:none;stroke-opacity:1"
             d="m 43.7891,217.297 188.0509,0 0,-62.609 -188.0509,0" /><path
             id="path46"
             style="fill:#036998;fill-opacity:1;fill-rule:nonzero;stroke:none"
             d="m 43.7891,126.84 c 7.8515,0 13.9414,-13.051 13.9414,-31.3322 0,-17.3906 -6.0899,-31.289 -13.9414,-31.289 -8.711,0 -13.9493,13.8984 -13.9493,31.289 0,18.2812 5.2383,31.3322 13.9493,31.3322" /><path
             id="path48"
             style="fill:none;stroke:#ffffff;stroke-width:3.99993992;stroke-linecap:butt;stroke-linejoin:miter;stroke-miterlimit:4;stroke-dasharray:none;stroke-opacity:1"
             d="m 43.7891,126.84 c 7.8515,0 13.9414,-13.051 13.9414,-31.3322 0,-17.3906 -6.0899,-31.289 -13.9414,-31.289 -8.711,0 -13.9493,13.8984 -13.9493,31.289 0,18.2812 5.2383,31.3322 13.9493,31.3322" /><path
             id="path50"
             style="fill:#036998;fill-opacity:1;fill-rule:nonzero;stroke:none"
             d="m 43.7891,64.2188 188.09,0 0,62.6211 -188.09,0 0,-62.6211 z" /><path
             id="path52"
             style="fill:none;stroke:#ffffff;stroke-width:3.99993992;stroke-linecap:butt;stroke-linejoin:miter;stroke-miterlimit:4;stroke-dasharray:none;stroke-opacity:1"
             d="m 43.7891,126.84 188.0509,0 0,-62.6212 -188.0509,0" /><path
             id="path54"
             style="fill:none;stroke:#ffffff;stroke-width:3.2000699;stroke-linecap:butt;stroke-linejoin:miter;stroke-miterlimit:1;stroke-dasharray:none;stroke-opacity:1"
             d="m 43.7891,217.297 195.0389,0" /><path
             id="path56"
             style="fill:none;stroke:#ffffff;stroke-width:3.2000699;stroke-linecap:butt;stroke-linejoin:miter;stroke-miterlimit:1;stroke-dasharray:none;stroke-opacity:1"
             d="m 43.7891,154.688 195.0389,0" /><path
             id="path58"
             style="fill:none;stroke:#ffffff;stroke-width:3.2000699;stroke-linecap:butt;stroke-linejoin:miter;stroke-miterlimit:1;stroke-dasharray:none;stroke-opacity:1"
             d="m 43.7891,126.84 195.0389,0" /><path
             id="path60"
             style="fill:none;stroke:#ffffff;stroke-width:3.2000699;stroke-linecap:butt;stroke-linejoin:miter;stroke-miterlimit:1;stroke-dasharray:none;stroke-opacity:1"
             d="m 43.7891,64.2188 195.0389,0" /><path
             id="path62"
             style="fill:none;stroke:#ffffff;stroke-width:8.00002956;stroke-linecap:butt;stroke-linejoin:miter;stroke-miterlimit:1;stroke-dasharray:none;stroke-opacity:1"
             d="m 55.7383,184.77 118.4417,0" /><path
             id="path64"
             style="fill:#000000;fill-opacity:1;fill-rule:nonzero;stroke:none"
             d="m 172.422,169.449 50.508,15.668 -50.508,14.762 0,-30.43" /><path
             id="path66"
             style="fill:none;stroke:#ffffff;stroke-width:3.2000699;stroke-linecap:butt;stroke-linejoin:miter;stroke-miterlimit:4;stroke-dasharray:none;stroke-opacity:1"
             d="m 172.422,169.449 50.508,15.668 -50.508,14.762 0,-30.43 z" /><path
             id="path68"
             style="fill:none;stroke:#ffffff;stroke-width:3.2000699;stroke-linecap:butt;stroke-linejoin:miter;stroke-miterlimit:1;stroke-dasharray:none;stroke-opacity:1"
             d="m 54.2188,185.617 118.4412,0" /><path
             id="path70"
             style="fill:#ffffff;fill-opacity:1;fill-rule:nonzero;stroke:none"
             d="m 170.898,170.309 50.512,15.671 -50.512,14.797 0,-30.468" /><path
             id="path72"
             style="fill:none;stroke:#ffffff;stroke-width:3.2000699;stroke-linecap:butt;stroke-linejoin:miter;stroke-miterlimit:4;stroke-dasharray:none;stroke-opacity:1"
             d="m 170.898,170.309 50.512,15.671 -50.512,14.797 0,-30.468 z" /><path
             id="path74"
             style="fill:none;stroke:#ffffff;stroke-width:8.00002956;stroke-linecap:round;stroke-linejoin:miter;stroke-miterlimit:4;stroke-dasharray:none;stroke-opacity:1"
             d="m 221.719,93.9492 -118.399,0" /><path
             id="path76"
             style="fill:#ffffff;fill-opacity:1;fill-rule:nonzero;stroke:none"
             d="M 105.391,109.688 54.8789,94.0195 105.391,79.2578 l 0,30.4302" /><path
             id="path78"
             style="fill:none;stroke:#ffffff;stroke-width:3.99993992;stroke-linecap:butt;stroke-linejoin:miter;stroke-miterlimit:4;stroke-dasharray:none;stroke-opacity:1"
             d="M 105.391,109.688 54.8789,94.0195 105.391,79.2578 l 0,30.4302 z" /><path
             id="path80"
             style="fill:#036998;fill-opacity:1;fill-rule:nonzero;stroke:none"
             d="m 231.84,252.109 76.64,34.801 0,-243.5897 -76.64,-34.80077 0,243.58947" /><path
             id="path82"
             style="fill:none;stroke:#ffffff;stroke-width:3.99993992;stroke-linecap:butt;stroke-linejoin:miter;stroke-miterlimit:4;stroke-dasharray:none;stroke-opacity:1"
             d="m 231.84,252.109 76.64,34.801 0,-243.5897 -76.64,-34.80077 0,243.58947 z" /><path
             id="path84"
             style="fill:#036998;fill-opacity:1;fill-rule:nonzero;stroke:none"
             d="m 273.629,217.297 c 7.851,0 13.949,-13.039 13.949,-31.317 0,-17.39 -6.098,-31.292 -13.949,-31.292 -8.707,0 -13.899,13.902 -13.899,31.292 0,18.278 5.192,31.317 13.899,31.317" /><path
             id="path86"
             style="fill:none;stroke:#ffffff;stroke-width:3.99993992;stroke-linecap:butt;stroke-linejoin:miter;stroke-miterlimit:4;stroke-dasharray:none;stroke-opacity:1"
             d="m 273.629,217.297 c 7.851,0 13.949,-13.039 13.949,-31.317 0,-17.39 -6.098,-31.292 -13.949,-31.292 -8.707,0 -13.899,13.902 -13.899,31.292 0,18.278 5.192,31.317 13.899,31.317" /><path
             id="path88"
             style="fill:#036998;fill-opacity:1;fill-rule:nonzero;stroke:none"
             d="m 273.629,126.84 c 7.851,0 13.949,-13.051 13.949,-31.3322 0,-17.3906 -6.098,-31.289 -13.949,-31.289 -8.707,0 -13.899,13.8984 -13.899,31.289 0,18.2812 5.192,31.3322 13.899,31.3322" /><path
             id="path90"
             style="fill:none;stroke:#ffffff;stroke-width:3.99993992;stroke-linecap:butt;stroke-linejoin:miter;stroke-miterlimit:4;stroke-dasharray:none;stroke-opacity:1"
             d="m 273.629,126.84 c 7.851,0 13.949,-13.051 13.949,-31.3322 0,-17.3906 -6.098,-31.289 -13.949,-31.289 -8.707,0 -13.899,13.8984 -13.899,31.289 0,18.2812 5.192,31.3322 13.899,31.3322" /></g></g></g></g></svg>

<svg xmlns="http://www.w3.org/2000/svg" viewBox="0 0 38.75 36.25" height="36.25" width="38.75"><defs><clipPath id="a"><path d="M0 10h310v280H0V10z"/></clipPath></defs><g clip-path="url(#a)" transform="matrix(.13 0 0 -.13 0 36.25)"><path d="M1.988 8.52l76.64 34.8H308.48l-76.64-34.8H1.988" fill="#036998"/><path d="M1.988 8.52l76.64 34.8H308.48l-76.64-34.8H1.988z" fill="none" stroke="#fff" stroke-width="4"/><path d="M1.988 252.109l76.64 34.801V43.32L1.989 8.52v243.589" fill="#036998"/><path d="M1.988 252.109l76.64 34.801V43.32L1.989 8.52v243.589z" fill="none" stroke="#fff" stroke-width="4"/><path d="M78.629 43.32h229.84v243.59H78.629V43.32z" fill="#036998"/><path d="M78.629 43.32h229.84v243.59H78.629V43.32z" fill="none" stroke="#fff" stroke-width="4"/><path d="M1.988 252.109l76.64 34.801H308.48l-76.64-34.801H1.988" fill="#036998"/><path d="M1.988 252.109l76.64 34.801H308.48l-76.64-34.801H1.988z" fill="none" stroke="#fff" stroke-width="4"/><path d="M43.79 217.297c7.85 0 13.94-13.039 13.94-31.317 0-17.39-6.09-31.292-13.94-31.292-8.712 0-13.95 13.902-13.95 31.292 0 18.278 5.238 31.317 13.95 31.317" fill="#036998"/><path d="M43.79 217.297c7.85 0 13.94-13.039 13.94-31.317 0-17.39-6.09-31.292-13.94-31.292-8.712 0-13.95 13.902-13.95 31.292 0 18.278 5.238 31.317 13.95 31.317" fill="none" stroke="#fff" stroke-width="4"/><path d="M43.79 154.68h188.09v62.617H43.79V154.68z" fill="#036998"/><path d="M43.79 217.297h188.05v-62.609H43.79" fill="none" stroke="#fff" stroke-width="4"/><path d="M43.79 126.84c7.85 0 13.94-13.051 13.94-31.332 0-17.39-6.09-31.29-13.94-31.29-8.712 0-13.95 13.9-13.95 31.29 0 18.281 5.238 31.332 13.95 31.332" fill="#036998"/><path d="M43.79 126.84c7.85 0 13.94-13.051 13.94-31.332 0-17.39-6.09-31.29-13.94-31.29-8.712 0-13.95 13.9-13.95 31.29 0 18.281 5.238 31.332 13.95 31.332" fill="none" stroke="#fff" stroke-width="4"/><path d="M43.79 64.219h188.09v62.62H43.79V64.22z" fill="#036998"/><path d="M43.79 126.84h188.05V64.219H43.79" fill="none" stroke="#fff" stroke-width="4"/><path d="M43.79 217.297h195.038M43.79 154.688h195.038M43.79 126.84h195.038M43.79 64.219h195.038" fill="none" stroke="#fff" stroke-width="3.2" stroke-miterlimit="1"/><path d="M55.738 184.77H174.18" fill="none" stroke="#fff" stroke-width="8" stroke-miterlimit="1"/><path d="M172.422 169.449l50.508 15.668-50.508 14.762v-30.43"/><path d="M172.422 169.449l50.508 15.668-50.508 14.762v-30.43z" fill="none" stroke="#fff" stroke-width="3.2"/><path d="M54.219 185.617H172.66" fill="none" stroke="#fff" stroke-width="3.2" stroke-miterlimit="1"/><path d="M170.898 170.309l50.512 15.671-50.512 14.797v-30.468" fill="#fff"/><path d="M170.898 170.309l50.512 15.671-50.512 14.797v-30.468z" fill="none" stroke="#fff" stroke-width="3.2"/><path d="M221.719 93.95H103.32" fill="none" stroke="#fff" stroke-width="8" stroke-linecap="round"/><path d="M105.391 109.688L54.879 94.019l50.512-14.761v30.43" fill="#fff"/><path d="M105.391 109.688L54.879 94.019l50.512-14.761v30.43z" fill="none" stroke="#fff" stroke-width="4"/><path d="M231.84 252.109l76.64 34.801V43.32l-76.64-34.8v243.589" fill="#036998"/><path d="M231.84 252.109l76.64 34.801V43.32l-76.64-34.8v243.589z" fill="none" stroke="#fff" stroke-width="4"/><path d="M273.629 217.297c7.851 0 13.949-13.039 13.949-31.317 0-17.39-6.098-31.292-13.949-31.292-8.707 0-13.899 13.902-13.899 31.292 0 18.278 5.192 31.317 13.899 31.317" fill="#036998"/><path d="M273.629 217.297c7.851 0 13.949-13.039 13.949-31.317 0-17.39-6.098-31.292-13.949-31.292-8.707 0-13.899 13.902-13.899 31.292 0 18.278 5.192 31.317 13.899 31.317" fill="none" stroke="#fff" stroke-width="4"/><path d="M273.629 126.84c7.851 0 13.949-13.051 13.949-31.332 0-17.39-6.098-31.29-13.949-31.29-8.707 0-13.899 13.9-13.899 31.29 0 18.281 5.192 31.332 13.899 31.332" fill="#036998"/><path d="M273.629 126.84c7.851 0 13.949-13.051 13.949-31.332 0-17.39-6.098-31.29-13.949-31.29-8.707 0-13.899 13.9-13.899 31.29 0 18.281 5.192 31.332 13.899 31.332" fill="none" stroke="#fff" stroke-width="4"/></g></svg>
